app/dist/common/images/definitive-healthcare.svg

<svg height="18" width="18" xmlns="http://www.w3.org/2000/svg"><path d="m0 0h18v18h-18z" fill="#531295"/><path d="m5 13v-8h8v8h-5.85l1.02-1h3.83v-6h-6v5.35l3.38-3.35h-2.38v-1h4v4h-1v-2.18l-4.2 4.18z" fill="#fff"/></svg>

<!-- by TradingView --><svg xmlns="http://www.w3.org/2000/svg" width="18" height="18"><path fill="#531295" d="M0 0h18v18H0z"/><path d="M5 13V5h8v8H7.15l1.02-1H12V6H6v5.35L9.38 8H7V7h4v4h-1V8.82L5.8 13H5z" fill="#fff"/></svg>
